assets/logos/icons/play.svg

<svg height="24" viewBox="0 0 24 24" width="24" xmlns="http://www.w3.org/2000/svg"><path d="m8.02046377 8.60300457v6.86957683l6.86957683-3.4347884zm-2.02046377-1.61637101c0-.20204638 0-.30306957.10102319-.40409276.30306956-.50511594.90920869-.70716232 1.31330145-.50511594l10.10231886 5.05115944c.2020464.1010232.4040927.3030695.4040927.4040927.2020464.505116 0 1.1112551-.4040927 1.3133015l-10.10231886 5.0511594c-.10102319.1010232-.20204638.2020464-.40409276.2020464-.60613913 0-1.01023188-.4040928-1.01023188-1.0102319z" fill="#492f5c" fill-rule="evenodd"/></svg>

<svg xmlns="http://www.w3.org/2000/svg" xmlns:xlink="http://www.w3.org/1999/xlink" width="24" height="24" viewBox="0 0 24 24">
  <defs>
    <path id="play-a" d="M8.02046377,8.60300457 L8.02046377,15.4725814 L14.8900406,12.037793 L8.02046377,8.60300457 Z M6,6.98663356 C6,6.78458718 6,6.68356399 6.10102319,6.5825408 C6.40409275,6.07742486 7.01023188,5.87537848 7.41432464,6.07742486 L17.5166435,11.1285843 C17.7186899,11.2296075 17.9207362,11.4316538 17.9207362,11.532677 C18.1227826,12.037793 17.9207362,12.6439321 17.5166435,12.8459785 L7.41432464,17.8971379 C7.31330145,17.9981611 7.21227826,18.0991843 7.01023188,18.0991843 C6.40409275,18.0991843 6,17.6950915 6,17.0889524 L6,6.98663356 Z"/>
  </defs>
  <use fill="#492F5C" fill-rule="evenodd" xlink:href="#play-a"/>
</svg>
